X:1
T:The Beginning
C:Jackie Tolliday-Bailey
R:hornpipe
M:4/4
L:1/8
K:Gmaj
G2 B2 F2 B2 | GFGA BAGB | G2 B2 F2 B2 | GFEF E4 |
G2 B,2 F2 B,2 | GFGA BAGF | G2 B,2 F2 B,2 | EFGF E4 ||
efga bgeB | efga f2 B2 | efga ageB | efge f4 |
efga bgeB | dBAF B4 | BcBA BGEB, | dBAG E4 |]
